X:530
T:Bourre
L:1/8
M:2/4
O:France
R:Bourre
Z:Richard Robinson 
%%TUNEURL: http://www.leeds.ac.uk/music/Info/RRTuneBk/gettune/00000b7c.html
%%ID:00000b7c
K:G
G2Bd| g3b| a>gfe| d>cBA| G2Bd| g3b| a>gfe| d4::
B>dBd| c>ece| dgga| g/f/g/a/ bg| B>dBd| c>ece| d2gf| g4:|
